X: 34631
T: Road To Ballydehob, The
R: reel
M: 4/4
K: Gmajor
BA|G2 Bc dBAG|cdef gdBG|cdec BcdB|AGAB A2 BA|
G2 Bc dBAG|cdef gdBG|cdef gfgd|1 cAFA G2 BA:|2 cAFA G2 Bc||
d2 Bd gdBc|dggf g2 AB|c2 Ac ecAB|ceed e2 Bc|
d2 Bd gdBc|dggf g2 ed|cdef gfgd|1 cAFA GABc:|2 cAFA G2||

